icon/ir/copy.svg

<svg stroke-width="1.5" viewBox="0 0 24 24" fill="none" xmlns="http://www.w3.org/2000/svg" height="1em" width="1em">
  <path d="M19.4 20H9.6C9.26863 20 9 19.7314 9 19.4V9.6C9 9.26863 9.26863 9 9.6 9H19.4C19.7314 9 20 9.26863 20 9.6V19.4C20 19.7314 19.7314 20 19.4 20Z" stroke="currentColor" stroke-linecap="round" stroke-linejoin="round"/>
  <path d="M15 9V4.6C15 4.26863 14.7314 4 14.4 4H4.6C4.26863 4 4 4.26863 4 4.6V14.4C4 14.7314 4.26863 15 4.6 15H9" stroke="currentColor" stroke-linecap="round" stroke-linejoin="round"/>
</svg>

<svg width="24" height="24" stroke-width="1.5" fill="none" xmlns="http://www.w3.org/2000/svg"><path d="M19.4 20H9.6a.6.6 0 0 1-.6-.6V9.6a.6.6 0 0 1 .6-.6h9.8a.6.6 0 0 1 .6.6v9.8a.6.6 0 0 1-.6.6Z" stroke="currentColor" stroke-linecap="round" stroke-linejoin="round"/><path d="M15 9V4.6a.6.6 0 0 0-.6-.6H4.6a.6.6 0 0 0-.6.6v9.8a.6.6 0 0 0 .6.6H9" stroke="currentColor" stroke-linecap="round" stroke-linejoin="round"/></svg>
